Hatter-kde/actions/24/tools-rip-video-cd.svg

<?xml version="1.0" encoding="UTF-8"?>
<svg viewBox="0 0 24 24" xmlns="http://www.w3.org/2000/svg">
 <defs id="defs3051">
  <style id="current-color-scheme" type="text/css">.ColorScheme-Text {
        color:#363636;
      }</style>
 </defs>
 <path class="ColorScheme-Text" d="m12 4c-4.432 0-8 3.568-8 8s3.568 8 8 8v-1c-3.878 0-7-3.122-7-7s3.122-7 7-7 7 3.122 7 7h1c0-4.432-3.568-8-8-8zm0 2c-3.324 0-6 2.676-6 6h3c0-1.662 1.338-3 3-3v-3zm0 4c-1.108 0-2 0.892-2 2s0.892 2 2 2v-1c-0.554 0-1-0.446-1-1s0.446-1 1-1 1 0.446 1 1h1c0-1.108-0.892-2-2-2zm2.5 4c-0.831 0-1.5 0.669-1.5 1.5 0 0.65424 0.41808 1.2022 1 1.4082v3.0918h4v-2-1c0.554 0 1-0.446 1-1s-0.446-1-1-1-1 0.446-1 1h-1.0918c0.055658-0.15722 0.091797-0.32324 0.091797-0.5 0-0.831-0.669-1.5-1.5-1.5zm3.5 4 2 2v-4l-2 2zm-3-1h2v2h-2v-2z" fill="currentColor"/>
</svg>

<svg xmlns="http://www.w3.org/2000/svg" viewBox="0 0 24 24">
  <defs id="defs3051">
    <style type="text/css" id="current-color-scheme">
      .ColorScheme-Text {
        color:#363636;
      }
      </style>
  </defs>
 <path style="fill:currentColor;fill-opacity:1;stroke:none" 
     d="M 12 4 C 7.568 4 4 7.568 4 12 C 4 16.432 7.568 20 12 20 L 12 19 C 8.122 19 5 15.878 5 12 C 5 8.122 8.122 5 12 5 C 15.878 5 19 8.122 19 12 L 20 12 C 20 7.568 16.432 4 12 4 z M 12 6 C 8.676 6 6 8.676 6 12 L 9 12 C 9 10.338 10.338 9 12 9 L 12 6 z M 12 10 C 10.892 10 10 10.892 10 12 C 10 13.108 10.892 14 12 14 L 12 13 C 11.446 13 11 12.554 11 12 C 11 11.446 11.446 11 12 11 C 12.554 11 13 11.446 13 12 L 14 12 C 14 10.892 13.108 10 12 10 z M 14.5 14 C 13.669 14 13 14.669 13 15.5 C 13 16.15424 13.418077 16.702197 14 16.908203 L 14 20 L 18 20 L 18 18 L 18 17 C 18.554 17 19 16.554 19 16 C 19 15.446 18.554 15 18 15 C 17.446 15 17 15.446 17 16 L 15.908203 16 C 15.963861 15.842779 16 15.67676 16 15.5 C 16 14.669 15.331 14 14.5 14 z M 18 18 L 20 20 L 20 16 L 18 18 z M 15 17 L 17 17 L 17 19 L 15 19 L 15 17 z "
     class="ColorScheme-Text"
     />
</svg>
